icons/desktop/16/svg/blocked-popup-16.svg

<svg width="16" height="16" viewBox="0 0 16 16" fill="none" xmlns="http://www.w3.org/2000/svg">
<path fill-rule="evenodd" clip-rule="evenodd" d="M12.5 8.00048C14.43 8.00048 16 9.57048 16 11.5005C15.9997 13.4303 14.4298 15.0005 12.5 15.0005C10.5702 15.0005 9.00027 13.4303 9 11.5005C9 9.57048 10.57 8.00048 12.5 8.00048ZM11.415 13.4692C11.7371 13.6473 12.1065 13.7505 12.5 13.7505C13.7408 13.7505 14.7497 12.7413 14.75 11.5005C14.75 11.107 14.6479 10.7366 14.4697 10.4145L11.415 13.4692ZM12.5 9.25048C11.259 9.25048 10.25 10.2595 10.25 11.5005C10.2501 11.8937 10.3514 12.2636 10.5293 12.5854L13.585 9.52978C13.263 9.35183 12.8933 9.25048 12.5 9.25048Z" fill="black"/>
<path d="M2.41504 1.26415C5.42689 0.916171 8.53467 0.913274 11.5615 1.26122C12.9514 1.42021 13.9998 2.59576 14 3.9956V7.01611C13.526 6.85711 13.027 6.7495 12.5 6.7495V4.50048H1.5V9.00732C1.50017 9.64109 1.96906 10.1735 2.58984 10.2446C3.88976 10.3946 5.20884 10.4796 6.50977 10.4966C6.96177 10.5016 7.41612 10.4802 7.87012 10.4702C7.79618 10.803 7.75004 11.1457 7.75 11.4995V11.5024C7.75006 11.6653 7.78187 11.8201 7.79785 11.979C7.52994 11.984 7.26203 12.0024 6.99512 12.0024C6.82719 12.0024 6.65816 12.0005 6.49023 11.9985C5.13823 11.9805 3.76799 11.8928 2.41699 11.7368C1.04011 11.5768 0.00016434 10.4041 0 9.00829V3.98974C0.000110957 2.59384 1.03911 1.42214 2.41504 1.26415Z" fill="black"/>
</svg>

<!-- This Source Code Form is subject to the terms of the Mozilla Public
   - License, v. 2.0. If a copy of the MPL was not distributed with this
   - file, You can obtain one at http://mozilla.org/MPL/2.0/. -->
<svg xmlns="http://www.w3.org/2000/svg" width="16" height="16" fill="context-fill" fill-opacity="context-fill-opacity" viewBox="0 0 16 16">
    <path fill-rule="evenodd" d="M12.5 8c1.93 0 3.5 1.57 3.5 3.5S14.43 15 12.5 15 9 13.43 9 11.5 10.57 8 12.5 8m-1.085 5.47c.322.177.692.28 1.085.28a2.253 2.253 0 0 0 1.97-3.335zM12.5 9.25a2.252 2.252 0 0 0-1.97 3.335l3.055-3.055a2.24 2.24 0 0 0-1.085-.28" clip-rule="evenodd" />
    <path d="M2.415 1.264a40.2 40.2 0 0 1 9.147-.003A2.75 2.75 0 0 1 14 3.996v3.02a4.7 4.7 0 0 0-1.5-.266V4.5h-11v4.507c0 .634.47 1.167 1.09 1.238 1.3.15 2.619.235 3.92.252.452.005.906-.017 1.36-.027-.074.333-.12.676-.12 1.03v.002c0 .163.032.318.048.477-.268.005-.536.023-.803.023q-.253 0-.505-.004a40 40 0 0 1-4.073-.261A2.74 2.74 0 0 1 0 9.008V3.99a2.736 2.736 0 0 1 2.415-2.726" />
</svg>
